X: 30462
T: DEMOCRATIC RAGE
C:
%R: reel, hornpipe
B: Elias Howe "The Musician's Companion" Part 3 1844 p.46 #2
S: http://imslp.org/wiki/The_Musician's_Companion_(Howe,_Elias)
S: https://archive.org/stream/firstthirdpartof03howe/#page/66/mode/1up
Z: 2015 John Chambers <jc:trillian.mit.edu>
M: 2/4
L: 1/16
K: Bb
% - - - - - - - - - - - - - - - - - - - - - - - - -
F2 |\
B2dB BFDF | B2dB ecAc | Bcde fdcB | ABcd cAFD |\
B2dB BFDF | B2dB ecBA | Bcde fdcA | B2B2B2 :|
|: c2 |\
ffff ffaf | gggg ggbg | gecc cdcB | ABcd cAF_E |\
DFBF EGFE | DFBF EGFE | DFBd cdcA | B2B2B2 :|
% - - - - - - - - - - - - - - - - - - - - - - - - -
